src/asset/24px/send-1.svg

<svg width="24" height="24" viewBox="0 0 24 24" fill="none" xmlns="http://www.w3.org/2000/svg">
<path fill-rule="evenodd" clip-rule="evenodd" d="M19.8743 4.12567C19.9957 4.24702 20.033 4.42902 19.9693 4.58837L13.9125 19.7303C13.8444 19.9006 13.6755 20.0088 13.4923 19.9994C13.3091 19.9901 13.1521 19.8652 13.1017 19.6888L11.1482 12.8518L4.31116 10.8983C4.13477 10.8479 4.00994 10.6909 4.00056 10.5077C3.99119 10.3245 4.09936 10.1556 4.26969 10.0875L19.4116 4.0307C19.571 3.96696 19.753 4.00432 19.8743 4.12567ZM5.75357 10.4181L11.6131 12.0922C11.7557 12.1329 11.8671 12.2444 11.9078 12.3869L13.5819 18.2464L18.8008 5.19915L5.75357 10.4181Z" fill="currentColor" fill-opacity="0.87"/>
</svg>

<svg width="24" height="24" fill="none" xmlns="http://www.w3.org/2000/svg"><path fill-rule="evenodd" clip-rule="evenodd" d="M19.874 4.126a.429.429 0 01.095.462L13.912 19.73a.429.429 0 01-.81-.041l-1.954-6.837-6.837-1.954a.43.43 0 01-.041-.81L19.412 4.03a.429.429 0 01.462.095zm-14.12 6.292l5.86 1.674c.142.04.253.152.294.295l1.674 5.86L18.8 5.198 5.754 10.42z" fill="currentColor" fill-opacity=".87"/></svg>
